**harm	**harte	**timestamp	**phrase	**leadinstrument	**kern
*M4/4	*M4/4	*	*	*	*
*B-:	*B-:	*	*	*	*B-:
1r;	N	0	.	r	1r;
=1	=1	=1	=1	=1	=1
*>A_intro	*>A_intro	*>A_intro	*>A_intro	*>A_intro	*>A_intro
1I	B-:maj	0.887	newline	guitar	1B- 1dd 1ff
=2	=2	=2	=2	=2	=2
1ivc	E-:min/5	3.319	.	guitar	1e- 1g- 1B-
=3	=3	=3	=3	=3	=3
1I	B-:maj	5.751	.	guitar	1B- 1dd 1ff
=4	=4	=4	=4	=4	=4
1ivc	E-:min/5	8.183	.	guitar	1e- 1g- 1B-
=5	=5	=5	=5	=5	=5
*>B_verse	*>B_verse	*>B_verse	*>B_verse	*>B_verse	*>B_verse
1I	B-:maj	10.615	newline	voice	1B- 1dd 1ff
=6	=6	=6	=6	=6	=6
1ivc	E-:min/5	13.054	.	voice	1e- 1g- 1B-
=7	=7	=7	=7	=7	=7
1I	B-:maj	15.493	.	voice	1B- 1dd 1ff
=8	=8	=8	=8	=8	=8
1ivc	E-:min/5	17.932	.	voice	1e- 1g- 1B-
=9	=9	=9	=9	=9	=9
1I	B-:maj	20.371	newline	voice	1B- 1dd 1ff
=10	=10	=10	=10	=10	=10
1vi	G:min	22.712	.	voice	1G 1b- 1dd
=11	=11	=11	=11	=11	=11
1II	C:maj	25.054	.	voice	1C 1e 1g
=12	=12	=12	=12	=12	=12
1V	F:maj	27.396	.	voice	1F 1a 1cc
=13	=13	=13	=13	=13	=13
1I	B-:maj	29.737	newline	voice	1B- 1dd 1ff
=14	=14	=14	=14	=14	=14
1vi	G:min	32.153	.	voice	1G 1b- 1dd
=15	=15	=15	=15	=15	=15
1IV	E-:maj	34.568	.	voice	1E- 1g 1b-
=16	=16	=16	=16	=16	=16
1ii	C:min	36.983	.	voice	1C 1e- 1g
=17	=17	=17	=17	=17	=17
1iii	D:min	39.399	newline	voice	1D 1f 1a
=18	=18	=18	=18	=18	=18
1vi	G:min	41.743	.	voice	1G 1b- 1dd
=19	=19	=19	=19	=19	=19
1II	C:maj	44.087	.	voice	1C 1e 1g
=20	=20	=20	=20	=20	=20
1V	F:maj	46.431	.	voice	1F 1a 1cc
=21	=21	=21	=21	=21	=21
*>A_trans	*>A_trans	*>A_trans	*>A_trans	*>A_trans	*>A_trans
1I	B-:maj	48.775	newline	guitar	1B- 1dd 1ff
=22	=22	=22	=22	=22	=22
1ivc	E-:min/5	51.13	.	guitar	1e- 1g- 1B-
=23	=23	=23	=23	=23	=23
1I	B-:maj	53.485	.	guitar	1B- 1dd 1ff
=24	=24	=24	=24	=24	=24
*>B_verse	*>B_verse	*>B_verse	*>B_verse	*>B_verse	*>B_verse
1I	B-:maj	55.84	newline	voice	1B- 1dd 1ff
=25	=25	=25	=25	=25	=25
1ivc	E-:min/5	58.264	.	voice	1e- 1g- 1B-
=26	=26	=26	=26	=26	=26
1I	B-:maj	60.688	.	voice	1B- 1dd 1ff
=27	=27	=27	=27	=27	=27
1ivc	E-:min/5	63.112	.	voice	1e- 1g- 1B-
=28	=28	=28	=28	=28	=28
1I	B-:maj	65.536	newline	voice	1B- 1dd 1ff
=29	=29	=29	=29	=29	=29
1vi	G:min	67.913	.	voice	1G 1b- 1dd
=30	=30	=30	=30	=30	=30
1II	C:maj	70.29	.	voice	1C 1e 1g
=31	=31	=31	=31	=31	=31
1V	F:maj	72.667	.	voice	1F 1a 1cc
=32	=32	=32	=32	=32	=32
1I	B-:maj	75.044	newline	voice	1B- 1dd 1ff
=33	=33	=33	=33	=33	=33
1vi	G:min	77.487	.	voice	1G 1b- 1dd
=34	=34	=34	=34	=34	=34
1IV	E-:maj	79.93	.	voice	1E- 1g 1b-
=35	=35	=35	=35	=35	=35
1ii	C:min	82.373	.	voice	1C 1e- 1g
=36	=36	=36	=36	=36	=36
1iii	D:min	84.817	newline	voice	1D 1f 1a
=37	=37	=37	=37	=37	=37
1vi	G:min	87.174	.	voice	1G 1b- 1dd
=38	=38	=38	=38	=38	=38
1II	C:maj	89.531	.	voice	1C 1e 1g
=39	=39	=39	=39	=39	=39
1V	F:maj	91.888	.	voice	1F 1a 1cc
=40	=40	=40	=40	=40	=40
*>A_trans	*>A_trans	*>A_trans	*>A_trans	*>A_trans	*>A_trans
1I	B-:maj	94.245	newline	guitar	1B- 1dd 1ff
=41	=41	=41	=41	=41	=41
1ivc	E-:min/5	96.577	.	guitar	1e- 1g- 1B-
=42	=42	=42	=42	=42	=42
1I	B-:maj	98.908	.	guitar	1B- 1dd 1ff
=43	=43	=43	=43	=43	=43
*>B_verse	*>B_verse	*>B_verse	*>B_verse	*>B_verse	*>B_verse
1I	B-:maj	101.239	newline	voice	1B- 1dd 1ff
=44	=44	=44	=44	=44	=44
1ivc	E-:min/5	103.56	.	voice	1e- 1g- 1B-
=45	=45	=45	=45	=45	=45
1I	B-:maj	105.881	.	voice	1B- 1dd 1ff
=46	=46	=46	=46	=46	=46
1ivc	E-:min/5	108.202	.	voice	1e- 1g- 1B-
=47	=47	=47	=47	=47	=47
1I	B-:maj	110.523	newline	voice	1B- 1dd 1ff
=48	=48	=48	=48	=48	=48
1vi	G:min	112.843	.	voice	1G 1b- 1dd
=49	=49	=49	=49	=49	=49
1II	C:maj	115.163	.	voice	1C 1e 1g
=50	=50	=50	=50	=50	=50
1V	F:maj	117.483	.	voice	1F 1a 1cc
=51	=51	=51	=51	=51	=51
1I	B-:maj	119.803	newline	voice	1B- 1dd 1ff
=52	=52	=52	=52	=52	=52
1vi	G:min	122.107	.	voice	1G 1b- 1dd
=53	=53	=53	=53	=53	=53
1IV	E-:maj	124.411	.	voice	1E- 1g 1b-
=54	=54	=54	=54	=54	=54
1ii	C:min	126.715	.	voice	1C 1e- 1g
=55	=55	=55	=55	=55	=55
1iii	D:min	129.019	newline	voice	1D 1f 1a
=56	=56	=56	=56	=56	=56
1vi	G:min	131.341	.	voice	1G 1b- 1dd
=57	=57	=57	=57	=57	=57
1II	C:maj	133.662	.	voice	1C 1e 1g
=58	=58	=58	=58	=58	=58
1V	F:maj	135.984	.	voice	1F 1a 1cc
=59	=59	=59	=59	=59	=59
*>A_trans	*>A_trans	*>A_trans	*>A_trans	*>A_trans	*>A_trans
1I	B-:maj	138.305	newline	guitar	1B- 1dd 1ff
=60	=60	=60	=60	=60	=60
1ivc	E-:min/5	140.585	.	guitar	1e- 1g- 1B-
=61	=61	=61	=61	=61	=61
1I	B-:maj	142.864	.	guitar	1B- 1dd 1ff
=62	=62	=62	=62	=62	=62
*>B_verse	*>B_verse	*>B_verse	*>B_verse	*>B_verse	*>B_verse
1I	B-:maj	145.144	newline	voice	1B- 1dd 1ff
=63	=63	=63	=63	=63	=63
1ivc	E-:min/5	147.467	.	voice	1e- 1g- 1B-
=64	=64	=64	=64	=64	=64
1I	B-:maj	149.79	.	voice	1B- 1dd 1ff
=65	=65	=65	=65	=65	=65
1ivc	E-:min/5	152.114	.	voice	1e- 1g- 1B-
=66	=66	=66	=66	=66	=66
1I	B-:maj	154.437	newline	voice	1B- 1dd 1ff
=67	=67	=67	=67	=67	=67
1vi	G:min	156.761	.	voice	1G 1b- 1dd
=68	=68	=68	=68	=68	=68
1II	C:maj	159.084	.	voice	1C 1e 1g
=69	=69	=69	=69	=69	=69
1V	F:maj	161.408	.	voice	1F 1a 1cc
=70	=70	=70	=70	=70	=70
1I	B-:maj	163.731	newline	voice	1B- 1dd 1ff
=71	=71	=71	=71	=71	=71
1vi	G:min	165.999	.	voice	1G 1b- 1dd
=72	=72	=72	=72	=72	=72
1IV	E-:maj	168.267	.	voice	1E- 1g 1b-
=73	=73	=73	=73	=73	=73
1ii	C:min	170.535	.	voice	1C 1e- 1g
=74	=74	=74	=74	=74	=74
1iii	D:min	172.803	newline	voice	1D 1f 1a
=75	=75	=75	=75	=75	=75
1vi	G:min	175.107	.	voice	1G 1b- 1dd
=76	=76	=76	=76	=76	=76
1II	C:maj	177.411	.	voice	1C 1e 1g
=77	=77	=77	=77	=77	=77
1V	F:maj	179.715	.	voice	1F 1a 1cc
=78	=78	=78	=78	=78	=78
*>A_outro	*>A_outro	*>A_outro	*>A_outro	*>A_outro	*>A_outro
1I	B-:maj	182.019	newline	guitar	1B- 1dd 1ff
=79	=79	=79	=79	=79	=79
1ivc	E-:min/5	184.261	.	guitar	1e- 1g- 1B-
=80	=80	=80	=80	=80	=80
1I	B-:maj	186.502	.	guitar	1B- 1dd 1ff
=81	=81	=81	=81	=81	=81
1I	B-:maj	188.743	.	guitar	1B- 1dd 1ff
1r;	N	190.984	.	r	1r;
1r;	N	195.135	.	r	1r;
*-	*-	*-	*-	*-	*-
!!!OTL: There But For Fortune
!!!COC: Joan Baez
!!!BillboardChartDate: 1965/10/23
!!!BillboardPeak: 50
!!!BillboardWeeksOnChart: 7
!!!SampleTargetRank: 72
!!!SampleActualRank: 71
!!!SampleID#: 1087
!!!RDF**harmony: **recip + pitch class of root + harmonic quality
!!!RDF**harte: Chris Harte's syntax, used by MIREX
!!!RDF**phrase: newline = linebreak in original McGill transcription
!!!RDF**timestamp: McGill audio timestamp in seconds
!!!RDF**leadinstrument: original McGill primary instrumentation annotation
!!!RDT: 2017/01/12/
!!!ENC: Nathaniel Condit-Schultz
!!!EST: Awating manual error checking and editing.
